X:1
T:Vexilla Regis/O Crux Ave
T:Juan Francés de Iribarren (1698 - 1767) edit BMarble
T:Vexilla Regis/O Crux Ave
T:Copyright © 2014 by CPDL.  This edition can be fully distributed, duplicated, performed, and recorded 
T:Copyright © 2014 by CPDL.  This edition can be fully distributed, duplicated, performed, and recorded 
T:Copyright © 2014 by CPDL.  This edition can be fully distributed, duplicated, performed, and recorded 
C:Juan Francés de Iribarren (1698 - 1767) edit BMarble
Z:Copyright © 2014 by CPDL.  This edition can be fully distributed, duplicated, performed, and recorded
%%score [ 1 2 3 4 ]
L:1/8
Q:1/2=72
M:4/2
K:F
V:1 treble nm="Soprano" snm="S."
V:2 treble nm="Alto" snm="A."
V:3 treble-8 transpose=-12 nm="Tenor" snm="T."
V:4 bass nm="Baritone" snm="Bar."
V:1
 A8 (A4 F4-) | F4 E4 (D6 E2 | F4) G4 A2 G2 F2 ED | E6 E2 D4 z4 | A8 A4 (F2 E2) | %5
w: Ve- xil- *|* la re- *|* gis pro- * * * *|* de- unt,|ful- get cru- *|
w: O crux _|_ a- ve _|_ spes u- * * * *|* ni- ca,|hoc pas- si- *|
 D4 d4 (^c2 =Bc d4-) | d4 ^c4 d4 z4 | d8 d4 B4 | A8 D8 | A12 A4 | A8 z4 A4 | B4 (A6 G2) F4- | %12
w: cis my- ste- * * *|* ri- um,|ful- get cru-|cis my-|ste- ri-|um, qua|vi- ta _ mor-|
w: o- nis tem- * * *|* po- re:|hoc pas- si-|o- nis|tem- po-|re: pi-|is a- * dau-|
 F4 E4 F6 E2 | D4 d8 (c2 B2) | A8 B4 B4 | A12 A4 | A16 |] %17
w: * tem per- tu-|lit, et mor- *|te vi- tam|pro- tu-|lit.|
w: * ge gra- ti-|am, re- is- *|que de- le|cri- mi-|na.|
V:2
 z16 | z16 | z16 | A8 (A4 F4-) | F4 E4 (D6 E2 | F4) G4 A2 G2 F2 ED | E6 E2 D4 z4 | F8 F4 (E2 D2 | %8
w: |||Ve- xil- *|* la re- *|* gis pro- * * * *|* de- unt,|ful- get cru- *|
w: |||O crux _|_ a- ve _|_ spes u- * * * *|* ni- ca,|hoc pas- si- *|
 ^C4) D4 z4 G4- | (G4 F4) E6 E2 | D8 D4 F4 | (D4 =C4) F6 D2 | (E2 D2) C4 C8 | z4 D4 F4 E4- | %14
w: * cis my-|* * ste- ri-|um, qua vi-|ta _ mor- tem|per- * tu- lit,|et mor- te|
w: o- nis tem-|* * * po-|re: pi- is|a- * dau- ge|gra- * ti- am,|re- is- que|
 E4 D6 D2 G4- | (G4 F2 E2 F4) (E2 D2) | E16 |] %17
w: _ vi- tam pro-|* * * * tu- *|lit.|
w: _ de- le cri-|* * * * mi- *|na.|
V:3
 z8 A4 d4- | d4 ^c4 d4 d4- | (d2 c2 B4) (A2 =B^c d4-) | d4 ^c4 d4 (D2 E2 | F2 G2) A4 D8 | z16 | %6
w: Ve- xil-|* la re- gis|_ _ _ pro- * * *|* de- unt, pro- *|* * de- unt,||
w: O crux|_ a- ve spes|_ _ _ u- * * *|* ni- ca, u- *|* * ni- ca,||
 A8 A4 F4- | (F2 E2 D2 E2 F4) G4 | A8 (B6 AG | ^c4 d8) c4 | d8 z8 | z8 A4 B4 | (A4 G4) A4 F4 | %13
w: ful- get cru-|* * * * * cis|my- ste- * *|* * ri-|um,|qua vi-|ta _ mor- tem|
w: hoc pas- si-|* * * * * o-|nis tem- * *|* * po-|re:|pi- is|a- * dau- ge|
 G6 G2 A8 | z4 f8 e4- | e4 d8 (^c2 =B2) | ^c16 |] %17
w: per- tu- lit,|vi- tam|_ pro- tu- *|lit.|
w: gra- ti- am,|de- le|_ cri- mi- *|na.|
V:4
 z16 | z16 | z16 | z8 D,4 D4- | D4 ^C4 D4 D4- | (D2 C2 B,4) A,8- | A,4 A,4 D,4 D,4 | %7
w: |||Ve- xil-|* la re- gis|_ _ _ pro-|* de- unt, ful-|
w: |||O crux|_ a- ve spes|_ _ _ u-|* ni- ca, hoc|
 D,4 (B,,6 A,,2 G,,4-) | G,,4 ^F,,4 G,,8 | A,,12 A,,4 | D,8 z8 | D,4 F,4 (D,8 | C,8) F,4 A,4 | %13
w: get cru- * *|* cis my-|ste- ri-|um,|et mor- te|_ vi- tam|
w: pas- si- * *|* o- nis|tem- po-|re:|re- is- que|_ de- le|
 (B,8 A,6) G,2 | F,4 (F,4 G,6) G,2 | A,16- | A,16 |] %17
w: pro- * tu-|lit, pro- * tu-|lit.|_|
w: cri- * mi-|na, cri- * mi-|na.|_|

